!!!COM:	Martini, Johannes
!!!CDT:	~1440///-~1497//
!!!OTL:	Super flumina Babilonis
!!!AGN:	Motet
!!!SCT:	Mar2088
!!!SCA:	Mar2088
!!!voices:	2
**kern	**kern
*staff2	*staff1
*Ivox	*Ivox
*I"Tenor	*I"Superius
*I'T	*I'S
*>[A,B,C,D,E,F,G,H,I,J,K,L,M,N]	*>[A,B,C,D,E,F,G,H,I,J,K,L,M,N]
*>A	*>A
*clefGv2	*clefG2
*k[]	*k[]
*M2/1	*M2/1
*met(C)	*met(C)
!!section: Cum recordaremur
!!!OMD: Cum recordaremur
=1-	=1-
!!LO:TX:Z=8:t=Choir 1
1c	1cc
2e\	2cc\
2e\	2cc\
=2	=2
2e\	2cc\
2e\	2cc\
1e	1cc
=3	=3
2.c\	2.a/
4d\	4b\
2e\	2cc\
[2f\	[2dd\
=4	=4
2f\]	2dd\]
2e\	1cc
1d	.
.	2b\
=5	=5
0cl	0ccl
=6||	=6||
*>B	*>B
!!section: In salicibus
!!!OMD: In salicibus
!!LO:TX:Z=8:t=Choir 2
1c	1cc
1e	1cc
=7	=7
2e\	2cc\
2e\	2cc\
1e	1cc
=8	=8
2e\	2cc\
2c\	2cc\
2d\	2b\
2e\	2cc\
=9	=9
1f	1dd
1c	1cc
=10	=10
1r	1r
1e	1cc
=11	=11
2e\	2cc\
2e\	2cc\
1e	1cc
=12	=12
1e	1cc
2c\	2a/
2e\	2cc\
=13	=13
1f	1dd
1cl	1ccl
=14||	=14||
*>C	*>C
!!section: Quia illic
!!!OMD: Quia illic
!!LO:TX:Z=8:t=Choir 1
2e\	2cc\
2e\	2cc\
1e	1cc
=15	=15
1e	1cc
1e	1cc
=16	=16
2e\	2cc\
2e\	2cc\
2e\	2cc\
2e\	2cc\
=17	=17
1e	1cc
1d	1b
=18	=18
1c	1a
1d	1b
=19	=19
1c	1cc
1e	1cc
=20	=20
1d	1b
2e\	2cc\
2f\	[2dd\
=21	=21
1e	2dd\]
.	2cc#i\
1d	1dd
=22	=22
1r	1r
1e	1cc
=23	=23
1e	1cc
2.c\	2.a/
4d\	4b\
=24	=24
2e\	2cc\
1f	1dd
2e\	[2cc\
=25	=25
1d	2cc\]
.	2b\
1cl	1ccl
=26||	=26||
*>D	*>D
!!section: Et qui adduxerunt
!!!OMD: Et qui adduxerunt
!!LO:TX:Z=8:t=Choir 2
1c	1cc
1e	1cc
=27	=27
2e\	2cc\
2e\	2cc\
2e\	2cc\
2e\	2cc\
=28	=28
1d	1dd
1r	1r
=29	=29
1e	1cc
2e\	2cc\
2e\	2cc\
=30	=30
2e\	2cc\
2e\	2cc\
1e	1cc
=31	=31
1e	1cc
2e\	2cc\
2c\	2a/
=32	=32
2e\	2cc\
1f	1dd
2c\	2cc\
=33	=33
0cl	0ccl
=34||	=34||
*>E	*>E
!!LO:TX:Z=8:t=Choir 1
!!section: Quomodo cantabimus
!!!OMD: Quomodo cantabimus
2e\	2cc\
2e\	2cc\
1e	1cc
=35	=35
1e	1cc
2e\	2cc\
2e\	2cc\
=36	=36
1e	1cc
2d\	2b\
2c\	2a/
=37	=37
2B\	2g/
2c\	1cc
1d	.
.	2b\
=38	=38
1c	1cc
1r	1r
=39	=39
1e	1cc
1e	1cc
=40	=40
1d	1b
2.c\	2.a/
4d\	4b\
=41	=41
2e\	2cc\
1f	1dd
2e\	[2cc\
=42	=42
1d	2cc\]
.	2b\
1cl	1ccl
=43||	=43||
*>F	*>F
!!LO:TX:Z=8:t=Choir 2
!!section: Si oblitus
!!!OMD: Si oblitus
1c	1cc
1e	1cc
=44	=44
2e\	2cc\
2e\	2cc\
2e\	2cc\
2e\	2cc\
=45	=45
1e	1cc
1e	1cc
=46	=46
2c\	2cc\
2d\	2b\
2e\	2cc\
2d\	[2dd\
=47	=47
1e	2dd\]
.	2cc#i\
1d	1dd
=48	=48
1r	1r
2e\	2cc\
2e\	2cc\
=49	=49
2e\	2cc\
2e\	2cc\
1e	1cc
=50	=50
2e\	2cc\
2e\	2cc\
1e	1cc
=51	=51
2c\	2a/
2d\	2cc\
1f	1dd
=52	=52
0cl	0ccl
=53||	=53||
*>G	*>G
!!LO:TX:Z=8:t=Choir 1
!!section: Adhereat lingua
!!!OMD: Adhereat lingua
1e	1cc
2e\	2cc\
2e\	2cc\
=54	=54
1e	1cc
2e\	2cc\
2e\	2cc\
=55	=55
1e	1cc
1e	1cc
=56	=56
2d\	2b\
2c\	2a/
2B\	2g/
2c\	[2cc\
=57	=57
1d	2cc\]
.	2b\
1c	1cc
=58	=58
1r	1r
1e	1cc
=59	=59
1e	1cc
2c\	2a/
2d\	2b\
=60	=60
2c\	2a/
1f	1dd
2e\	[2cc\
=61	=61
1d	2cc\]
.	2b\
1cl	1ccl
=62||	=62||
*>H	*>H
!!section: Si non proposuero
!!!OMD: Si non proposuero
!!LO:TX:Z=8:t=Choir 2
1c	1cc
1e	1cc
=63	=63
2e\	2cc\
2e\	2cc\
2e\	2cc\
2e\	2cc\
=64	=64
1e	1cc
1d	1b
=65	=65
2c\	2a/
2d\	2b\
2e\	2cc\
2d\	[2dd\
=66	=66
1e	2dd\]
.	2cc#i\
1d	1dd
=67	=67
1r	1r
2e\	2cc\
2e\	2cc\
=68	=68
2e\	2cc\
2e\	2cc\
1e	1cc
=69	=69
2e\	2cc\
2e\	2cc\
2c\	2a/
2e\	2cc\
=70	=70
1f	1dd
1cl	1ccl
=71||	=71||
*>I	*>I
!!LO:TX:Z=8:t=Choir 1
!!section: Memor esto, Domine
!!!OMD: Memor esto, Domine
1e	1cc
1e	1cc
=72	=72
2e\	2cc\
2e\	2cc\
2e\	2cc\
2e\	2cc\
=73	=73
1e	1cc
2e\	2cc\
2e\	2cc\
=74	=74
1d	1b
2.c\	2.a/
4d\	4b\
=75	=75
2e\	2cc\
2d\	1dd
1e	.
.	2cc#i\
=76	=76
1d	1dd
1r	1r
=77	=77
1e	1cc
1d	1b
=78	=78
2e\	2cc\
1f	1dd
2e\	[2cc\
=79	=79
1d	2cc\]
.	2b\
1cl	1ccl
=80||	=80||
*>J	*>J
!!section: Qui dicunt
!!!OMD: Qui dicunt
!!LO:TX:Z=8:t=Choir 2
1c	1cc
1e	1cc
=81	=81
1e	1cc
2e\	2cc\
2e\	2cc\
=82	=82
2e\	2cc\
2e\	2cc\
1e	1cc
=83	=83
1d	1b
2e\	2cc\
[2f\	[2dd\
=84	=84
2f\]	2dd\]
2e\	1cc
1d	.
.	2b\
=85	=85
1c	1cc
1r	1r
=86	=86
1e	1cc
1e	1cc
=87	=87
2e\	2cc\
2e\	2cc\
2e\	2cc\
2e\	2cc\
=88	=88
1e	1cc
2.c\	2.a/
4d\	4b\
=89	=89
2e\	2cc\
2.f\	2.dd\
4e\	4cc\
4d\	4b\
4c\	4a/
=90	=90
1d	1b
1cl	1ccl
=91||	=91||
*>K	*>K
!!LO:TX:Z=8:t=Choir 1
!!section: Filia Babilonis
!!!OMD: Filia Babilonis
2e\	2cc\
2e\	2cc\
1e	1cc
=92	=92
1e	1cc
2c\	2cc\
2d\	2b\
=93	=93
2e\	2cc\
1f	1dd
2e\	[2cc\
=94	=94
1d	2cc\]
.	2b\
1c	1cc
=95	=95
1r	1r
2e\	2cc\
2e\	2cc\
=96	=96
1e	1cc
2e\	2cc\
2e\	2cc\
=97	=97
2e\	2cc\
2e\	2cc\
1e	1cc
=98	=98
1d	1b
1c	1cc
=99	=99
1e	1cc
2e\	2cc\
2e\	2cc\
=100	=100
2e\	2cc\
2e\	2cc\
1e	1cc
=101	=101
1d	1b
1c	1a
=102	=102
1c	1cc
2c\	2cc\
2d\	2b\
=103	=103
2e\	2cc\
1f	1dd
2e\	[2cc\
=104	=104
1d	2cc\]
.	2b\
1cl	1ccl
=105||	=105||
*>L	*>L
!!LO:TX:Z=8:t=Choir 2
!!section: Beatus qui
!!!OMD: Beatus qui
2e\	2cc\
2e\	2cc\
1e	1cc
=106	=106
1d	1b
2e\	2cc\
[2f\	[2dd\
=107	=107
4f\]	2dd\]
4e\	.
4d\	1cc
4c\	.
1d	.
.	2b\
=108	=108
1c	1cc
1r	1r
=109	=109
1e	1cc
2e\	2cc\
2e\	2cc\
=110	=110
1e	1cc
1e	1cc
=111	=111
2e\	2cc\
2e\	2cc\
1e	1cc
=112	=112
2c\	2a/
2d\	1dd
2f\	.
2e\	[2cc\
=113	=113
1d	2cc\]
.	2b\
1cl	1ccl
=114||	=114||
*>M	*>M
!!section: Gloria Patri
!!!OMD: Gloria Patri
!!LO:TX:Z=8:t=Choir 1
1e	1cc
2e\	2cc\
2e\	2cc\
=115	=115
1e	1cc
2d\	2b\
2c\	2a/
=116	=116
2B\	2g/
2c\	1cc
1d	.
.	2b\
=117	=117
1c	1cc
1r	1r
=118	=118
1e	1cc
2e\	2cc\
2e\	2cc\
=119	=119
1e	1cc
2.c\	2.a/
4d\	4b\
=120	=120
2e\	2cc\
1f	1dd
2e\	[2cc\
=121	=121
1d	2cc\]
.	2b\
1cl	1ccl
=122||	=122||
*>N	*>N
!!section: Sicut erat
!!!OMD: Sicut erat
!!LO:TX:Z=8:t=Choir 2
2e\	2cc\
2e\	2cc\
2e\	2cc\
2e\	2cc\
=123	=123
2e\	2cc\
2e\	2cc\
2e\	2cc\
2e\	2cc\
=124	=124
1e	1cc
2d\	2b\
2c\	2a/
=125	=125
2B\	2g/
2c\	1cc
1d	.
.	2b\
=126	=126
1c	1cc
1r	1r
=127	=127
2e\	2cc\
2e\	2cc\
2e\	2cc\
2e\	2cc\
=128	=128
1e	1cc
2c\	2a/
2d\	2b\
=129	=129
2e\	2cc\
1f	1dd
2e\	[2cc\
=130	=130
1d	2cc\]
.	2b\
1cl	1ccl
==	==
*-	*-
!!!RDF**kern: l=long note in original notation
!!!RDF**kern: i=editorial accidental
!!!ENC:	Chris Gage 02-20-2014
!!!END:	2014/02/22/
!!!EED:	Jesse Rodin
!!!EEV:	2014/02/23/
!!!ONB:	Translated from MusicXML and edited on 2014/02/23/ by Craig Sapp
!!muse2ps: C^@{COM}^i2I150v85,150Q16
